Adwaita++-Light/panel/16/remmina-panel.svg

<svg height="16" width="16" xmlns="http://www.w3.org/2000/svg">
  <g fill="#444">
    <path d="m8 1a7 7 0 0 0 -7 7 7 7 0 0 0 .8515625 3.341797l1.6699219-1.125a5 5 0 0 1 -.5214844-2.216797 5 5 0 0 1 5-5 5 5 0 0 1 3.724609 1.6738281l1.673829-1.125a7 7 0 0 0 -5.398438-2.5488281zm6.105469 3.5820312-1.667969 1.1210938a5 5 0 0 1 .5625 2.296875 5 5 0 0 1 -5 5 5 5 0 0 1 -3.78125-1.740234l-1.6679688 1.123046a7 7 0 0 0 5.4492188 2.617188 7 7 0 0 0 7-7 7 7 0 0 0 -.894531-3.4179688z"/>
    <path d="m5 4.199219v1.7335196l1.1510294.7673526-1.1510294.7673526v1.7317752l3.7495641-2.4991278z"/>
    <path d="m10.550345 7-3.749564 2.4991276 3.749564 2.5008724v-1.73352l-1.1510286-.7673524 1.1510286-.7673525z"/>
  </g>
</svg>

<svg xmlns="http://www.w3.org/2000/svg" width="16" height="16" version="1.1">
 <defs>
  <style id="current-color-scheme" type="text/css">
   .ColorScheme-Text { color:#444444; } .ColorScheme-Highlight { color:#4285f4; }
  </style>
 </defs>
 <path style="fill:currentColor" class="ColorScheme-Text" d="M 8 1 A 7 7 0 0 0 1 8 A 7 7 0 0 0 1.8515625 11.341797 L 3.5214844 10.216797 A 5 5 0 0 1 3 8 A 5 5 0 0 1 8 3 A 5 5 0 0 1 11.724609 4.6738281 L 13.398438 3.5488281 A 7 7 0 0 0 8 1 z M 14.105469 4.5820312 L 12.4375 5.703125 A 5 5 0 0 1 13 8 A 5 5 0 0 1 8 13 A 5 5 0 0 1 4.21875 11.259766 L 2.5507812 12.382812 A 7 7 0 0 0 8 15 A 7 7 0 0 0 15 8 A 7 7 0 0 0 14.105469 4.5820312 z"/>
 <path style="fill:currentColor" class="ColorScheme-Text" d="M 5,4.199219 V 5.9327386 L 6.1510294,6.7000912 5,7.4674438 V 9.199219 L 8.7495641,6.7000912 Z"/>
 <path style="fill:currentColor" class="ColorScheme-Text" d="M 10.550345,7 6.800781,9.4991276 10.550345,12 V 10.26648 L 9.3993164,9.4991276 10.550345,8.7317751 Z"/>
</svg>
